X:347
T: WEIL MICH DAS GLUECK GEFUEHRT
N: E0973C
O: Europa, Mitteleuropa, Deutschland, Nauen, Buschow
R: Tanz - Lied, Reigen
M: 3/8
L: 1/16
K: A
 | E2A2A2 | A2GAB2 |
E2B2B2 | B2ABc2 |
A2c2c2 | c2Bcd2 |
c2BAGA | B2A2z2

@@@ Tune index: 4660
